X:1
T:Title
%%score { ( 1 3 ) | ( 2 4 ) }
L:1/8
M:4/4
K:Ab
V:1 treble nm="Grand Piano"
V:3 treble 
V:2 bass 
V:4 bass 
V:1
 z4 z2[Q:1/4=100] [Cc]>[CG] | [CB]2 [CA]>=E F2 d>=A | [Dc]2 [DB]>[FA] [EG]2 [Ee]>[E=d] | %3
 [Fd]2 [=Dc]>[DB] [DF]2 [DG]>[DA] | c4[K:bass][K:treble] z4 | cBAG F2 d>=A | %6
[M:9/8] cBG F =E2- EC>C |[M:4/4] F>=E FG A[CAc][=DAB][A=d] |[M:5/4] [Ge]4 [Gd]6 | %9
[M:6/8] [EAc]2 [Ac] [Ac]2 [Ac] | [EAc]2 c A2 A | B2 B B2 F | [DFB]2 [FA] F3 | [DEB]6 | %14
 [DEG]3 [DEG]2 [DEG] | [CEA]2 E A2 B | c2 B [EA]3 | [DFA]6 | [DFA]6 | [CEA]2 E A2 B | %20
 c2 B [EA]2 [Ac] | [FB=d]6 | [FA=df]6 |[M:3/8] [GBe] z z | [GBdg]3 |[M:3/4] [Adf]3 [Bde]3 | c6 | %27
 z2 z c3 | B6 | F2- [FG]2 z A | G2 _G =G2 A | B2 =A B2 _c | c2- [C=Ec-] [EGc-]2 [DFc-] | %33
[M:1/4] [C=Ec]2 |[M:2/4] [Ec] [E_c]2 [E=c] |[M:3/4] f6 | c2 z e2 e | [Fe]2 z .[Fd]3 | %38
 [Fc]2 z .[B,FB]3 | [CEA]6 | [B,EG]6 | [CEA]6- |[M:2/4] [CEA]2 z2 |] %43
V:2
 z4 z2 [A,,E,]>[A,,E,] | [A,,E,]2 [A,,A,]>[C,B,C] [F,A,C]2 [F,=A,E]>[F,A,E] | %2
 [B,,B,]2 [D,F,]>[D,B,] [E,C]2 [=A,,_G,]>[A,,G,] | %3
 [B,,_G,]2 [B,,A,]>[B,,A,] [B,,A,]2 [B,,B,]>[B,,A,] | .A,2 z2 [E,G,E]2 E>D | CB,A,G, F,2 D>=A, | %6
[M:9/8] CB,G, F, [C,G,]2- [C,G,]C,>C, |[M:4/4] F,>=E, F,G, A,F,B,,[B,,B,] | %8
[M:5/4] [E,B,]4 [E,B,]6 |[M:6/8] z2 E E2 E | z2[K:treble] [EA] [CE]2 [CE] | [DF]2 [DF] [DF]2 D | %12
 z2 D D3 | G,2 _G, =G,2 A, | B,2 =A, B,2[K:treble] C | z2 C [CE]2 [CE] | [CE]3 C3 | %17
 F,2 =E, F,2 G, | A,2 B, A,2 F, | z2[K:treble] C [CE]2 [CE] | [CE]2 [CE] z2 E | B,2 C B,2 A, | %22
 F,2 G, A,2 F, |[M:3/8] B, z z | [E,D]3 |[M:3/4] [F,D]3 [G,D]3 | %26
 [A,,A,]2 [A,,A,] [A,,A,]2 [A,,A,] | [A,,A,]2 [A,,A,] [A,,A,]2 [A,,A,] | %28
 [D,A,D]2 [D,A,D] [D,A,D]2 [D,G,D] | [D,F,D]2 [D,A,D] [D,A,D]2 [D,F,D] | [E,G,DE]6 | [E,G,E]6 | %32
 [C,G,C]2 [C,G,] [C,C]2 [C,G,] |[M:1/4] [C,G,]2 |[M:2/4] [C,G,] [C,G,]2 [C,G,] | %35
[M:3/4] [F,,F,=A,E]6 | [F,=A,E]2 z [F,A,F]2 [F,A,F] | [B,,B,]2 z .[B,,B,]3 | [C,A,]2 z .D,3 | E,6 | %40
 E,6 | A,,6- |[M:2/4] A,,2 z2 |] %43
V:3
 x8 | x8 | x8 | x8 | z[K:bass] A,F,_G,[K:treble] B2 e>d | x8 |[M:9/8] x9 |[M:4/4] x8 |[M:5/4] x10 | %9
[M:6/8] x6 | x6 | x6 | x6 | x6 | x6 | x6 | x6 | x6 | x6 | x6 | x6 | x6 | x6 |[M:3/8] x3 | x3 | %25
[M:3/4] x6 | [CE]2 [CE] [CE]2 [CE] | [CE]2 [CE] [CE]2 [CA] | F2 F F2 G | A2 z F3 | x6 | x6 | %32
 =E2 z2 z2 |[M:1/4] x2 |[M:2/4] x4 |[M:3/4] x6 | x6 | x6 | x6 | x6 | x6 | x6 |[M:2/4] x4 |] %43
V:4
 x8 | x8 | x8 | x8 | [E,E]4 z4 | x8 |[M:9/8] x9 |[M:4/4] x8 |[M:5/4] x10 |[M:6/8] C6 | %10
 E,3[K:treble] z3 | B,6 | F,6 | x6 | x5[K:treble] x | A,6 | E,6 | x6 | x6 | E,6[K:treble] | z3 C3 | %21
 x6 | x6 |[M:3/8] x3 | x3 |[M:3/4] x6 | x6 | x6 | x6 | x6 | x6 | x6 | x6 |[M:1/4] x2 |[M:2/4] x4 | %35
[M:3/4] x6 | x6 | x6 | x6 | x6 | x6 | x6 |[M:2/4] x4 |] %43

